assets/svg/solitude/moguls_yes-1_eRVin.svg

<?xml version="1.0" encoding="UTF-8"?>
<svg width="72px" height="72px" viewBox="0 0 72 72" version="1.1" xmlns="http://www.w3.org/2000/svg" xmlns:xlink="http://www.w3.org/1999/xlink">
    <!-- Generator: Sketch 58 (84663) - https://sketch.com -->
    <title>icons alone</title>
    <desc>Created with Sketch.</desc>
    <g id="icons-alone" stroke="none" stroke-width="1" fill="none" fill-rule="evenodd">
        <g id="Moguls" transform="translate(10.000000, 30.000000)" fill="#322a2e">
            <path d="M0,9.74098039 C1.626,7.01098039 4.183,4.72098039 7.318,3.53098039 C10.466,2.33998039 14.111,2.50698039 17.208,3.90598039 C20.312,5.37198039 22.521,7.66598039 25.174,9.09098039 C27.803,10.5919804 30.85,11.3099804 34,11.7409804 C30.865,12.1449804 27.501,11.8589804 24.481,10.4899804 C22.961,9.84898039 21.588,8.92998039 20.271,8.06398039 C18.967,7.17498039 17.718,6.31498039 16.378,5.72398039 C15.066,5.08298039 13.619,4.75698039 12.166,4.63198039 C10.713,4.48198039 9.24,4.63698039 7.801,5.00898039 C4.927,5.80398039 2.266,7.53398039 0,9.74098039" id="Fill-1"></path>
            <path d="M23.5,6.24098039 C26.038,5.69398039 28.325,4.58398039 30.294,3.13798039 L31.011,2.56398039 L31.827,1.94898039 C32.394,1.56398039 32.982,1.19798039 33.619,0.900980386 C34.889,0.313980386 36.325,-0.0420196137 37.774,0.00398038631 C39.22,0.0649803863 40.634,0.465980386 41.864,1.12098039 C43.098,1.78298039 44.173,2.65298039 45.12,3.48498039 C46.109,4.30598039 47.044,5.18798039 48.045,5.89698039 C49.021,6.64598039 50.201,7.03598039 51.5,7.24098039 C50.231,7.48898039 48.802,7.34298039 47.562,6.75098039 C46.332,6.17498039 45.25,5.44398039 44.179,4.72998039 C43.078,4.01198039 42.114,3.28498039 41.027,2.81998039 C39.964,2.31298039 38.839,2.02198039 37.714,2.00098039 C36.586,1.92898039 35.458,2.19898039 34.375,2.63098039 C33.828,2.83798039 33.3,3.11598039 32.778,3.41498039 L31.149,4.43598039 C28.815,5.78198039 26.109,6.52598039 23.5,6.24098039" id="Fill-4"></path>
        </g>
    </g>
</svg>

<svg height="72" viewBox="0 0 72 72" width="72" xmlns="http://www.w3.org/2000/svg"><g fill="#322a2e" fill-rule="evenodd" transform="translate(10 30)"><path d="m0 9.74098039c1.626-2.73 4.183-5.02 7.318-6.21 3.148-1.191 6.793-1.024 9.89.375 3.104 1.466 5.313 3.76 7.966 5.185 2.629 1.50100001 5.676 2.21900001 8.826 2.65000001-3.135.404-6.499.118-9.519-1.251-1.52-.64100001-2.893-1.56000001-4.21-2.42600001-1.304-.889-2.553-1.749-3.893-2.34-1.312-.641-2.759-.967-4.212-1.092-1.453-.15-2.926.005-4.365.377-2.874.795-5.535 2.525-7.801 4.732"/><path d="m23.5 6.24098039c2.538-.547 4.825-1.657 6.794-3.103l.717-.574.816-.615c.567-.385 1.155-.751 1.792-1.048 1.27-.587 2.706-.943 4.155-.897 1.446.061 2.86.462 4.09 1.117 1.234.662 2.309 1.532 3.256 2.364.989.821 1.924 1.703 2.925 2.412.976.749 2.156 1.139 3.455 1.344-1.269.248-2.698.102-3.938-.49-1.23-.576-2.312-1.307-3.383-2.021-1.101-.718-2.065-1.445-3.152-1.91-1.063-.507-2.188-.798-3.313-.819-1.128-.072-2.256.198-3.339.63-.547.207-1.075.485-1.597.784l-1.629 1.021c-2.334 1.346-5.04 2.09-7.649 1.805"/></g></svg>
